styles/1/Numix/48/places/brown-fileopen.svg

<?xml version="1.0" encoding="UTF-8" standalone="no"?>
<!-- Created with Inkscape (http://www.inkscape.org/) -->

<svg
   xmlns:dc="http://purl.org/dc/elements/1.1/"
   xmlns:cc="http://creativecommons.org/ns#"
   xmlns:rdf="http://www.w3.org/1999/02/22-rdf-syntax-ns#"
   xmlns:svg="http://www.w3.org/2000/svg"
   xmlns="http://www.w3.org/2000/svg"
   xmlns:sodipodi="http://sodipodi.sourceforge.net/DTD/sodipodi-0.dtd"
   xmlns:inkscape="http://www.inkscape.org/namespaces/inkscape"
   id="svg3396"
   height="48"
   width="48"
   version="1.0"
   inkscape:version="0.91 r"
   sodipodi:docname="brown-fileopen.svg">
  <metadata
     id="metadata64">
    <rdf:RDF>
      <cc:Work
         rdf:about="">
        <dc:format>image/svg+xml</dc:format>
        <dc:type
           rdf:resource="http://purl.org/dc/dcmitype/StillImage" />
        <dc:title />
      </cc:Work>
    </rdf:RDF>
  </metadata>
  <sodipodi:namedview
     pagecolor="#ffffff"
     bordercolor="#666666"
     borderopacity="1"
     objecttolerance="10"
     gridtolerance="10"
     guidetolerance="10"
     inkscape:pageopacity="0"
     inkscape:pageshadow="2"
     inkscape:window-width="1366"
     inkscape:window-height="747"
     id="namedview62"
     showgrid="true"
     inkscape:zoom="23.74981"
     inkscape:cx="15.015498"
     inkscape:cy="28.738238"
     inkscape:window-x="0"
     inkscape:window-y="21"
     inkscape:window-maximized="1"
     inkscape:current-layer="svg3396">
    <inkscape:grid
       type="xygrid"
       id="grid3906" />
  </sodipodi:namedview>
  <defs
     id="defs3398" />
  <path
     inkscape:connector-curvature="0"
     style="font-size:medium;font-style:normal;font-variant:normal;font-weight:normal;font-stretch:normal;text-indent:0;text-align:start;text-decoration:none;line-height:normal;letter-spacing:normal;word-spacing:normal;text-transform:none;direction:ltr;block-progression:tb;writing-mode:lr-tb;text-anchor:start;baseline-shift:baseline;color:#000000;fill:#8d6e63;fill-opacity:1;stroke:none;stroke-width:3.00000024;marker:none;visibility:visible;display:inline;overflow:visible;enable-background:accumulate;font-family:Sans;-inkscape-font-specification:Sans;opacity:0.4"
     d="M 5.1875,8.0000004 C 4.5111319,8.143957 3.9849192,8.8086467 4,9.5000004 L 4,37.5 c 7.86e-5,0.785377 0.7146233,1.499921 1.5,1.5 l 37,0 c 0.785377,-7.9e-5 1.499921,-0.714623 1.5,-1.5 l 0,-24.96875 c -7.9e-5,-0.785377 -0.714623,-1.499921 -1.5,-1.5 l -14.5,0 0,-1.5312496 c -7.9e-5,-0.7853767 -0.714623,-1.4999214 -1.5,-1.5 l -21,0 c -0.1037883,-0.010869 -0.2087117,-0.010869 -0.3125,0 z"
     id="path3912-0"
     sodipodi:nodetypes="ccccccccccccc" />
  <path
     style="fill:#eae7d1;fill-opacity:1"
     d="M 8,6 40,6 40,25 8,25 z"
     id="path6"
     inkscape:connector-curvature="0" />
  <path
     style="fill:#7a7a68;fill-opacity:1"
     inkscape:connector-curvature="0"
     id="path20-3-9"
     d="m 12,21 24,0 0,1 -24,0 z" />
  <path
     style="font-size:medium;font-style:normal;font-variant:normal;font-weight:normal;font-stretch:normal;text-indent:0;text-align:start;text-decoration:none;line-height:normal;letter-spacing:normal;word-spacing:normal;text-transform:none;direction:ltr;block-progression:tb;writing-mode:lr-tb;text-anchor:start;baseline-shift:baseline;color:#000000;fill:#8d6e63;fill-opacity:1;stroke:none;stroke-width:3.00000023999999987;marker:none;visibility:visible;display:inline;overflow:visible;enable-background:accumulate;font-family:Sans;-inkscape-font-specification:Sans"
     d="M 6 20 C 4 20 4 22 4 22 L 4 23.59375 L 4 37.5 A 1.5001501 1.5001501 0 0 0 5.5 39 L 42.5 39 A 1.5001501 1.5001501 0 0 0 44 37.5 L 44 27 L 44 25 C 44 23 42 23 42 23 L 41 23 L 39 23 L 36 23 L 28 23 L 28 22 C 28 20 26 20 26 20 L 8 20 L 7 20 L 6 20 z "
     id="path3912" />
  <path
     style="fill:#7a7a68;fill-opacity:1"
     inkscape:connector-curvature="0"
     id="path20"
     d="m 12,12 24,0 0,1 -24,0 z" />
  <path
     style="fill:#7a7a68;fill-opacity:1"
     inkscape:connector-curvature="0"
     id="path20-1"
     d="m 12,9 24,0 0,1 -24,0 z" />
  <path
     style="fill:#7a7a68;fill-opacity:1"
     inkscape:connector-curvature="0"
     id="path20-3"
     d="m 12,15 24,0 0,1 -24,0 z" />
  <path
     style="fill:#7a7a68;fill-opacity:1"
     inkscape:connector-curvature="0"
     id="path20-3-3"
     d="m 12,18 24,0 0,1 -24,0 z" />
</svg>

<!-- Created with Inkscape (http://www.inkscape.org/) -->
<svg xmlns="http://www.w3.org/2000/svg" viewBox="0 0 48 48">
 <path d="m 5.188 8 c -0.676 0.144 -1.203 0.809 -1.188 1.5 l 0 28 c 0 0.785 0.715 1.5 1.5 1.5 l 37 0 c 0.785 0 1.5 -0.715 1.5 -1.5 l 0 -24.969 c 0 -0.785 -0.715 -1.5 -1.5 -1.5 l -14.5 0 0 -1.531 c 0 -0.785 -0.715 -1.5 -1.5 -1.5 l -21 0 c -0.104 -0.011 -0.209 -0.011 -0.313 0 z" style="visibility:visible;fill:#8d6e63;opacity:0.4;fill-opacity:1;stroke:none;display:inline;color:#000"/>
 <path d="m 8 6 32 0 0 19 -32 0 z" style="fill:#eae7d1;fill-opacity:1"/>
 <path d="m 12 21 24 0 0 1 -24 0 z" style="fill:#7a7a68;fill-opacity:1"/>
 <path d="m 6 20 c -2 0 -2 2 -2 2 l 0 1.594 l 0 13.906 a 1.5 1.5 0 0 0 1.5 1.5 l 37 0 a 1.5 1.5 0 0 0 1.5 -1.5 l 0 -10.5 l 0 -2 c 0 -2 -2 -2 -2 -2 l -1 0 l -2 0 l -3 0 l -8 0 l 0 -1 c 0 -2 -2 -2 -2 -2 l -18 0 l -1 0 l -1 0 z" style="visibility:visible;fill:#8d6e63;fill-opacity:1;stroke:none;display:inline;color:#000"/>
 <path d="m 12 12 24 0 0 1 -24 0 z" style="fill:#7a7a68;fill-opacity:1"/>
 <path d="m 12 9 24 0 0 1 -24 0 z" style="fill:#7a7a68;fill-opacity:1"/>
 <path d="m 12 15 24 0 0 1 -24 0 z" style="fill:#7a7a68;fill-opacity:1"/>
 <path d="m 12 18 24 0 0 1 -24 0 z" style="fill:#7a7a68;fill-opacity:1"/>
</svg>
